assets/static/img/icon/eye_off.svg

<svg width="24" height="24" viewBox="0 0 24 24" fill="none" xmlns="http://www.w3.org/2000/svg">
	<path d="M7.28571 11.5H1V12.475H7.28571V11.5Z" fill="#e8eaed" />
	<path d="M7.28571 11.5H1V12.5H7.28571V11.5Z" fill="#e8eaed" />
	<path d="M23.0001 11.5H16.7144V12.5H23.0001V11.5Z" fill="#e8eaed" />
	<path fill-rule="evenodd" clip-rule="evenodd" d="M10.4046 10.8097L9.58811 10.2157C9.21858 10.7144 9 11.3317 9 12C9 13.6569 10.3432 15 12 15C13.6568 15 15 13.6569 15 12C15 10.3431 13.6568 9 12 9C11.7253 9 11.4593 9.03691 11.2065 9.10606L11.6075 10.0394C11.7346 10.0135 11.866 10 12 10C13.0815 10 13.9846 10.881 13.9846 12C13.9846 13.119 13.0815 14 12 14C10.9185 14 10.0154 13.119 10.0154 12C10.0154 11.5511 10.1607 11.1405 10.4046 10.8097Z" fill="#e8eaed" />
</svg>

<svg xmlns="http://www.w3.org/2000/svg" width="24" height="24" fill="none"><path fill="#e8eaed" d="M7.286 11.5H1v.975h6.286z"/><path fill="#e8eaed" d="M7.286 11.5H1v1h6.286zM23 11.5h-6.286v1H23z"/><path fill="#e8eaed" fill-rule="evenodd" d="m10.405 10.81-.817-.594a3 3 0 1 0 1.618-1.11l.402.933q.19-.038.392-.039c1.082 0 1.985.881 1.985 2s-.903 2-1.985 2a1.99 1.99 0 0 1-1.985-2c0-.449.146-.86.39-1.19" clip-rule="evenodd"/></svg>
